X: 21037
T: Jump At The Sun
R: jig
M: 6/8
K: Dminor
|:DFA ^G2A|DFA ^G2A|dAA dAA|BAG F2E|
DFA ^G2A|DFA ^G2A|dAA BAG|1 FGE D2E:|2 FGE D2c||
|:dAA fed|eAA gfe|fed fed|ecA B2A|
dAA fed|eAA gfe|dAA BAG|FGE D2c:|
|:dAA eAA|fAA eAA|d2A FAA|BcB A2c|
dAA eAA|fAA eAA|d2A BAG|1 FGE D2c:|2 FGE D2E||

